X:7773
T:Jackie Stuart's New Reel. JB.47
T:aka. JB.47
M:4/4
L:1/8
Q:160
S:James Biggins MS, Leeds, 1779.
R:Reel
O:England
A:Yorkshire
Z:
Z:vmp.Nick Barber & Chris Partingto
K:C
cg2e gcge|cg2e dBGB|cg2e gcge|a^fge dBGB:|!
|:ceAe ceAe|ceAc d/c/B/A/ GB|ceAe ceAg|a^fge dBGB:|]
